X:0107
T:The Cameronian's Rant.
N:no repeat marked at the end
M:2/4
L:1/8
Q:1/4=144
I: :: ||
Z:Jack Campin * www.campin.me.uk * 2009
K:G
g|dG     G/G/G| dG`````BG| dG     G/G/G|   d2 Bd |
  cA     A/A/A| cA`````BA|TcA     A/A/A|  d2 B  :|
A|Gg-````ga   | ge`````dB| Gg`````ga   |   geTdB |
  Aa`````ab   | Ag````Tfe| Aa`````ab   |   ag`fe |
  dg-````ga   | ge`````dB| Gg-````ga   |{g}f2(eg)|
 (f/g/a) eg   |(f/g/a) eg|(f/g/a) eg   |   f2 e |]

